packages/components/svg/google.svg

<?xml version="1.0" encoding="UTF-8"?>
<svg width="24px" height="24px" viewBox="0 0 24 24" version="1.1" xmlns="http://www.w3.org/2000/svg" xmlns:xlink="http://www.w3.org/1999/xlink">
    <!-- Generator: Sketch 52.5 (67469) - http://www.bohemiancoding.com/sketch -->
    <title>Chrome big</title>
    <desc>Created with Sketch.</desc>
    <g id="Icons" stroke="none" stroke-width="1" fill="none" fill-rule="evenodd">
        <g id="Google-White" fill="#FFFFFF">
            <path d="M3.04769211,16.7665391 C2.37646228,15.4018701 2,13.8633116 2,12.2325581 C2,10.6018047 2.37646228,9.06324614 3.04769211,7.69857714 C4.71209378,4.31470288 8.18889295,2 12.2325581,2 C14.8372093,2 17.1627907,2.97674419 18.9767442,4.55813953 L16,7.53488372 C14.9767442,6.69767442 13.6744186,6.18604651 12.2325581,6.18604651 C9.54881981,6.18604651 7.28327937,7.91858064 6.48923811,10.3303476 C6.29245442,10.928045 6.18604651,11.5674593 6.18604651,12.2325581 C6.18604651,12.897657 6.29245442,13.5370712 6.48923811,14.1347687 C7.28327937,16.5465356 9.54881981,18.2790698 12.2325581,18.2790698 C15.0697674,18.2790698 17.2093023,16.8372093 17.7209302,14.3255814 L12.2325581,14.3255814 L12.2325581,10.372093 L21.7674419,10.372093 C21.9069767,10.9767442 22,11.627907 22,12.2325581 C22,18.744186 17.3488372,22.4651163 12.2325581,22.4651163 C8.18889296,22.4651163 4.71209379,20.1504134 3.04769212,16.7665391 Z" id="Path"></path>
        </g>
    </g>
</svg>

<svg width="24" height="24" xmlns="http://www.w3.org/2000/svg"><path d="M3.048 16.767A10.242 10.242 0 0 1 2 12.233 10.203 10.203 0 0 1 12.233 2c2.604 0 4.93.977 6.744 2.558L16 7.535a5.916 5.916 0 0 0-3.767-1.349 6.035 6.035 0 0 0-6.047 6.047 6.035 6.035 0 0 0 6.047 6.047c2.837 0 4.976-1.443 5.488-3.954h-5.488v-3.954h9.534c.14.605.233 1.256.233 1.86 0 6.512-4.651 10.233-9.767 10.233-4.044 0-7.52-2.315-9.185-5.698z" fill="#BFBEBE" fill-rule="evenodd"/></svg>
